Adwaita++-Dark/actions/16/window-pop-out.svg

<svg height="16" width="16" xmlns="http://www.w3.org/2000/svg">
  <path d="m5.8 11.62 4.2-4.21v3.59h2v-7h-7v2h3.59l-4.21 4.2c-.23.19-.38.498-.38.8v1h1c.3037 0 .61-.14.8-.38z" fill="#e6ddff"/>
</svg>

<svg xmlns="http://www.w3.org/2000/svg" width="16" height="16" version="1.1">
 <path style="fill:#E6DDFF" d="M 5.8,11.62 10,7.41 V 11 H 12 V 4 H 5 V 6 H 8.59 L 4.38,10.2 C 4.15,10.39 4,10.698 4,11 V 12 H 5 C 5.3037,12 5.61,11.86 5.8,11.62 Z"/>
</svg>
